lib/svgs/user.svg

<?xml version="1.0" encoding="UTF-8"?>
<svg width="16px" height="16px" viewBox="0 0 16 16" version="1.1" xmlns="http://www.w3.org/2000/svg" xmlns:xlink="http://www.w3.org/1999/xlink">
    <!-- Generator: sketchtool 51.3 (57544) - http://www.bohemiancoding.com/sketch -->
    <title>user/user</title>
    <desc>Created with sketchtool.</desc>
    <defs></defs>
    <g id="Icons" stroke="none" stroke-width="1" fill="none" fill-rule="evenodd">
        <g id="Web" transform="translate(-243.000000, -2248.000000)" fill="#000000">
            <g id="user/user" transform="translate(243.000000, 2248.000000)">
                <path d="M14.8221701,16.001 C14.5431701,16.001 14.2931701,15.805 14.2351701,15.522 L13.6471701,12.66 C13.5291701,12.46 13.3451701,12.308 13.1241701,12.229 L9.50517013,10.938 C8.92417013,10.73 8.53417013,10.177 8.53417013,9.561 L8.53417013,9.043 C8.53417013,8.36 8.83617013,7.718 9.36217013,7.282 C9.95817013,6.787 10.3011701,6.067 10.3011701,5.307 L10.3011701,3.789 C10.3011701,2.361 9.13917013,1.2 7.71217013,1.2 C6.28417013,1.2 5.12217013,2.361 5.12217013,3.789 L5.12217013,5.307 C5.12217013,6.07 5.46717013,6.792 6.06717013,7.286 C6.59117013,7.718 6.89117013,8.355 6.89117013,9.032 L6.89117013,9.56 C6.89117013,10.176 6.50117013,10.73 5.92017013,10.937 L2.30017013,12.229 C2.07817013,12.308 1.89417013,12.46 1.77617013,12.661 L1.18817013,15.522 C1.12217013,15.846 0.805170129,16.053 0.480170129,15.988 C0.155170129,15.922 -0.0538298707,15.605 0.0121701293,15.279 L0.618170129,12.333 C0.629170129,12.282 0.646170129,12.233 0.669170129,12.187 C0.923170129,11.676 1.35917013,11.29 1.89617013,11.098 L5.51617013,9.807 C5.62117013,9.77 5.69117013,9.67 5.69117013,9.56 L5.69117013,9.032 C5.69117013,8.714 5.55017013,8.415 5.30417013,8.212 C4.42617013,7.489 3.92217013,6.43 3.92217013,5.307 L3.92217013,3.789 C3.92217013,1.7 5.62217013,0 7.71217013,0 C9.80117013,0 11.5011701,1.7 11.5011701,3.789 L11.5011701,5.307 C11.5011701,6.425 11.0001701,7.482 10.1281701,8.206 C9.87817013,8.413 9.73417013,8.718 9.73417013,9.043 L9.73417013,9.561 C9.73417013,9.671 9.80417013,9.771 9.90817013,9.808 L13.5271701,11.098 C14.0651701,11.29 14.5011701,11.677 14.7541701,12.187 C14.7781701,12.233 14.7941701,12.282 14.8051701,12.333 L15.4101701,15.279 C15.4771701,15.605 15.2681701,15.922 14.9431701,15.988 C14.9031701,15.996 14.8621701,16.001 14.8221701,16.001" id="Shape"></path>
            </g>
        </g>
    </g>
</svg>

<svg xmlns="http://www.w3.org/2000/svg" viewBox="0 0 16 16">
    <path d="M14.822 16.001a.6.6 0 0 1-.587-.479l-.588-2.862a.993.993 0 0 0-.523-.431l-3.619-1.291a1.466 1.466 0 0 1-.97-1.377v-.518c0-.683.301-1.325.827-1.761a2.567 2.567 0 0 0 .94-1.975V3.789a2.592 2.592 0 0 0-5.18 0v1.518c0 .763.345 1.485.945 1.979.524.432.824 1.069.824 1.746v.528c0 .616-.39 1.17-.97 1.377L2.3 12.229a.99.99 0 0 0-.525.432l-.588 2.861a.6.6 0 0 1-1.176-.243l.606-2.946a.617.617 0 0 1 .051-.146c.254-.511.69-.897 1.227-1.089l3.62-1.291a.263.263 0 0 0 .175-.247v-.528a1.06 1.06 0 0 0-.387-.82 3.757 3.757 0 0 1-1.382-2.905V3.789a3.794 3.794 0 0 1 7.58 0v1.518a3.764 3.764 0 0 1-1.374 2.899c-.25.207-.394.512-.394.837v.518c0 .11.07.21.174.247l3.62 1.29c.537.192.973.579 1.226 1.089.024.046.04.095.051.146l.605 2.946a.599.599 0 0 1-.588.722"/>
</svg>
